X:1
T:Rodman, 11.10.11.10
T:Lowell Mason (1792-1872)
T:Rodman, 11.10.11.10
T:Public Domain
C:Lowell Mason (1792-1872)
Z:Public Domain
%%score 1 ( 2 3 )
L:1/8
M:2/4
K:Bb
V:1 treble 
V:2 bass 
V:3 bass 
V:1
 [DB]2 [FA][EG] | [DF]2 [B,D][DF] | ([DF][CE]) [A,C][CE] | [CE]2 [B,D]2 | [DB]2 [FA][EG] | %5
 [DF]2 [B,D][DF] | [CF]2 [CG][C=E] | [CF]4 | [Fc]2 [Fc][Fc] | [Fd]2 [DF][DF] | [EG]2 [GB][EG] | %11
 [EG]2 [DF]2 | [DB]2 [Fc][Fc] | [Fd]2 [FB][Fd] | ([Fd][Ec]) [DB][CA] | [DB]4 |] %16
V:2
 [B,,B,]2 [B,,B,][B,,B,] | [B,,B,]2 [B,,F,][B,,F,] | F,2 F,[F,A,] | [B,,B,]2 [B,,B,]2 | %4
 [B,,B,]2 [B,,B,][B,,B,] | [B,,B,]2 [B,,F,][B,,B,] | [C,A,]2 [C,B,][C,G,] | [F,A,]4 | %8
 [F,A,]2 [F,A,][F,A,] | B,2 B,B, | [E,B,]2 [E,B,][E,B,] | [B,,B,]2 [B,,B,]2 | %12
 [G,B,]2 [F,A,][F,A,] | B,2 [D,B,][B,,B,] | (B,F,) F,F, | [B,,F,]4 |] %16
V:3
 x4 | x4 | F,2 F, x | x4 | x4 | x4 | x4 | x4 | x4 | B,2 B,B, | x4 | x4 | x4 | B,2 x2 | F,2 F,F, | %15
 x4 |] %16

